!!!SOCIAL_FUNCTION:	bird dance songs
!!!PDT:	1956
!!!OTL: No_186_Old_Man's_Dance_Song_(e).krn
!!!LANG: Non-Tone
!!!LING_GROUP: Muskogean
!!!REG: Florida
**kern
*staff1
=1-
*clefF4
*k[b-e-a-]
*M2/4
4.B-\
(32B-\LLK
16.G\JJ)
=2!|:
*M3/4
(8A-\L
8G\J)
4G\
(8A-\L
8G\J)
=3||
*M2/4
4.A-\
8r
=4
(4B-\
8G\)
32A-\LLK
16.G\JJ
=5
(8A-\L
8G\J)
4G\
=6||
=
*M5/8
8E-\L
8E-\
8E-\
8B-\
(32B-\LK
16.G\JJ)
=7:|!
*M2/4
8E-\L
8E-\J
4E-\
==
*-
